X: 14
T: Missa L'homme arm\'e / Sanctus
N: Derived from Duf1004d-Missa_Lhomme_arme-Sanctus.krn
C: Guillaume Du Fay
%%abc-version 2.0
%%abcx-abcm2ps-target-version 5.9.1 (29 Sep 2008)
%%abc-creator hum2abc beta
%%abcx-conversion-date 2019/02/16 20:31:46
%%abc-edited-by Jesse Rodin
%%abc-edited-by Planchart/Rodin
%%abcx-initial-encoding-date 2013/12/07/
%%humdrum-veritas 175332136
%%humdrum-veritas-data 2138704510
%%linebreak <none>
%%barnumbers 0
L: 1/4
M: 3/1
Q: 1/2=120
%%staves [1 2 3 4]
V: 1 clef=treble
V: 2 clef=treble-8
V: 3 clef=treble-8
V: 4 clef=bass
K: F
[V:1] G6A2=B4 | 
[V:2] G8G4 | 
[V:3] z12 | 
[V:4] z12 | 
[V:1] c4=B2d4c2 | 
[V:2] A4G8 | 
[V:3] z12 | 
[V:4] z12 | 
[V:1] =B2G2A4B3G | 
[V:2] G4F4G4 | 
[V:3] z12 | 
[V:4] z12 | 
[V:1] G6^F2F2E2 | 
[V:2] B4A8 | 
[V:3] z12 | 
[V:4] z12 | 
[V:1] G4z4=B4- | 
[V:2] G12 | 
[V:3] z12 | 
[V:4] z12 | 
[V:1] B2A2=B2d2c3B | 
[V:2] d8e4 | 
[V:3] z12 | 
[V:4] z12 | 
[V:1] d6c2d4 | 
[V:2] d4f8 | 
[V:3] z12 | 
[V:4] z12 | 
[V:1] e6c2c4 | 
[V:2] g4e4a3g | 
[V:3] z12 | 
[V:4] z12 | 
[V:1] d2e3dc2=B2A2- | 
[V:2] f2e2a4g2a2 | 
[V:3] z12 | 
[V:4] z12 | 
[V:1] A2d2e2d4^c2 | 
[V:2] f3e/d/c2f2e4 | 
[V:3] z12 | 
[V:4] z12 | 
[V:1] d12 | 
[V:2] d8d4 | 
[V:3] z12 | 
[V:4] z12 | 
[V:1] z12 | 
[V:2] d2g4f2d4 | 
[V:3] G12- | 
[V:4] z12 | 
[V:1] =B8G4 | 
[V:2] z12 | 
[V:3] G12 | 
[V:4] D12 | 
[V:1] =B2c2d6c2 | 
[V:2] g12- | 
[V:3] G12 | 
[V:4] D4B,2C2D4 | 
[V:1] e8e4 | 
[V:2] g4a4e2f2 | 
[V:3] c8c4 | 
[V:4] C4A,8 | 
[V:1] d4e4c4 | 
[V:2] g3fa2e2^f3e | 
[V:3] B4A8 | 
[V:4] D4C8 | 
[V:1] =B6c2d4 | 
[V:2] g12 | 
[V:3] G12- | 
[V:4] D12 | 
[V:1] =B6G2G4- | 
[V:2] d8B2c2 | 
[V:3] G12- | 
[V:4] z12 | 
[V:1] G4z2D4G2- | 
[V:2] d4G4B3c | 
[V:3] G12- | 
[V:4] B,8G,4 | 
[V:1] G2G2=B3cd4 | 
[V:2] d2e2d2g6 | 
[V:3] G12 | 
[V:4] B,2C2D8 | 
[V:1] z12 | 
[V:2] f2a3gg2a2f2 | 
[V:3] z12 | 
[V:4] D4C2B,2A,4 | 
[V:1] z12 | 
[V:2] g3fedd2c2ed- | 
[V:3] z12 | 
[V:4] B,2G,4B,2A,2G,2- | 
[V:1] z12 | 
[V:2] d/c/BA2B2G2g2f2 | 
[V:3] z12 | 
[V:4] G,2F,2G,3F,E,2D,2- | 
[V:1] z12 | 
[V:2] d2e3dd4^c2 | 
[V:3] z12 | 
[V:4] D,2G,2F,2D,2E,4 | 
[V:1] A4F2G2A4 | 
[V:2] d4A8 | 
[V:3] d12- | 
[V:4] D,12 | 
[V:1] B2G2B3cA4 | 
[V:2] z12 | 
[V:3] d12- | 
[V:4] G,8F,4 | 
[V:1] G2d3cd2B2AG | 
[V:2] B12 | 
[V:3] d12- | 
[V:4] G,12 | 
[V:1] ^F6G2F2E2 | 
[V:2] A8A4 | 
[V:3] d12 | 
[V:4] D,12 | 
[V:1] G4z4G4 | 
[V:2] B6c2d4 | 
[V:3] G12- | 
[V:4] D8B,4 | 
[V:1] A2B4G4G2 | 
[V:2] d4e4d4 | 
[V:3] G12 | 
[V:4] z12 | 
[V:1] AF2DE2D2d2c2 | 
[V:2] z2B2A2B2G2g2 | 
[V:3] d4c2d4e2 | 
[V:4] z12 | 
[V:1] BA2GA2G4^F2 | 
[V:2] f2e3dd4c2 | 
[V:3] d2c4B2A4 | 
[V:4] z12 | 
[V:1] G8G4 | 
[V:2] d8z4 | 
[V:3] G12- | 
[V:4] z12 | 
[V:1] D8z4 | 
[V:2] g12- | 
[V:3] G12 | 
[V:4] z12 | 
[V:1] d6c2B4 | 
[V:2] g4d4e4 | 
[V:3] z12 | 
[V:4] G,8G,4 | 
[V:1] A8F4 | 
[V:2] f6e2c4 | 
[V:3] z12 | 
[V:4] F,8F,4 | 
[V:1] D8B4 | 
[V:2] B6c2d4 | 
[V:3] g8g4 | 
[V:4] G,8G,4 | 
[V:1] A2d3cB2A4 | 
[V:2] d8d4 | 
[V:3] f8f4 | 
[V:4] D,12 | 
[V:1] G4B8 | 
[V:2] G12 | 
[V:3] g8g4 | 
[V:4] z12 | 
[V:1] A4F8 | 
[V:2] z4B6c2 | 
[V:3] d12 | 
[V:4] z12 | 
[V:1] G2F2D6E2 | 
[V:2] d6B4G2 | 
[V:3] z12 | 
[V:4] G,8G,4 | 
[V:1] F2G2A4G2A2 | 
[V:2] A3Bc2d2A4 | 
[V:3] z12 | 
[V:4] F,8F,4 | 
[V:1] D2E3DD4^C2 | 
[V:2] B8G4 | 
[V:3] g8g4 | 
[V:4] G,8G,4 | 
[V:1] D8z4 | 
[V:2] A4F2B2A4 | 
[V:3] f8f4 | 
[V:4] D,12 | 
[V:1] B8c4 | 
[V:2] G8A4 | 
[V:3] g8e4 | 
[V:4] z12 | 
[V:1] d8B4 | 
[V:2] B4G4g4 | 
[V:3] d12 | 
[V:4] z4z4G,4 | 
[V:1] A4c4B4 | 
[V:2] f4e6d2 | 
[V:3] z12 | 
[V:4] A,8G,4 | 
[V:1] A6G4E2 | 
[V:2] d4e4c4 | 
[V:3] z4z4g4 | 
[V:4] F,4E,8 | 
[V:1] F3EDCD2E2^C2 | 
[V:2] d3c/B/A2F2G4 | 
[V:3] a8g4 | 
[V:4] D,4F,4E,4 | 
[V:1] D4z4A4- | 
[V:2] A2B2c6A2 | 
[V:3] f4e8 | 
[V:4] D,4A,8 | 
[V:1] A2F3GA2BGA2 | 
[V:2] A8z4 | 
[V:3] d12- | 
[V:4] D,8G,2F,2 | 
[V:1] GG2FG2D2G3A | 
[V:2] B2A2GB2cd2G2 | 
[V:3] d12- | 
[V:4] G,2D,2G,3B,2CD2 | 
[V:1] Bcd2G2A2^F3E | 
[V:2] B3AB2A3GA2 | 
[V:3] d12- | 
[V:4] G,6D,6 | 
[V:1] G12 ||  
[V:2] B2G2B3cd4 ||  
[V:3] d12 ||  
[V:4] G,12 ||  
[V:1]  [K:F] [K:clef=treble][M:3/1]G8=B2c2 | 
[V:2]  [K:F] [K:clef=treble-8][M:3/1]g12- | 
[V:3]  [K:F] [K:clef=treble-8][M:3/1]z12 | 
[V:4]  [K:F] [K:clef=bass][M:3/1]z12 | 
[V:1] d4e6d2 | 
[V:2] g8g4 | 
[V:3] z12 | 
[V:4] z12 | 
[V:1] d6^c4=B2 | 
[V:2] f4e8 | 
[V:3] z12 | 
[V:4] z12 | 
[V:1] d6c2A4 | 
[V:2] d4f8 | 
[V:3] z12 | 
[V:4] z12 | 
[V:1] z2G2F2A3GF2 | 
[V:2] e4d8 | 
[V:3] z12 | 
[V:4] z12 | 
[V:1] E2G2F2D4D2 | 
[V:2] c4d4G2B2 | 
[V:3] z12 | 
[V:4] z12 | 
[V:1] EF2EG3FE2D2 | 
[V:2] A4G2c4B2 | 
[V:3] z12 | 
[V:4] z12 | 
[V:1] z2G4F4B2 | 
[V:2] G4B2A2d4 | 
[V:3] z12 | 
[V:4] z12 | 
[V:1] A4d2c2d3c | 
[V:2] c2d4e2f2d2- | 
[V:3] z12 | 
[V:4] z12 | 
[V:1] B2A2G2B2A2F2- | 
[V:2] d2c2B2G2A4 | 
[V:3] z12 | 
[V:4] z12 | 
[V:1] FDE2D4F4 | 
[V:2] B2c2G2B2A4 | 
[V:3] z12 | 
[V:4] z12 | 
[V:1] B3GA2G2E2^F2 | 
[V:2] G3EF2G2A4 | 
[V:3] z12 | 
[V:4] z12 | 
[V:1] G12 | 
[V:2] G8z4 | 
[V:3] z12 | 
[V:4] z12 | 
[V:1] z2d4=B2c4 | 
[V:2] g4d2e4f2 | 
[V:3] z12 | 
[V:4] z12 | 
[V:1] =B2G2A4G2E2 | 
[V:2] g2c4f2e2c2 | 
[V:3] z12 | 
[V:4] z12 | 
[V:1] D2F2E4D2G2 | 
[V:2] d4A2c2B2G2 | 
[V:3] z12 | 
[V:4] z12 | 
[V:1] F2A4B2A2GF | 
[V:2] A4F2G2A2B2 | 
[V:3] z12 | 
[V:4] z12 | 
[V:1] E2F2D4C2E2 | 
[V:2] c2d4f2e2g2 | 
[V:3] z12 | 
[V:4] z12 | 
[V:1] D2F2G2A2d3c | 
[V:2] f2d2e2f4g2- | 
[V:3] z12 | 
[V:4] z12 | 
[V:1] =B2A2d3cd2e2 | 
[V:2] g2d4f4e2- | 
[V:3] z12 | 
[V:4] z12 | 
[V:1] c2d2A4B2A2- | 
[V:2] e2d4c2d4 | 
[V:3] z12 | 
[V:4] z12 | 
[V:1] AGF2E2A4G2 | 
[V:2] A3Bc2d2B4 | 
[V:3] z12 | 
[V:4] z12 | 
[V:1] A12 | 
[V:2] A8z4 | 
[V:3] z12 | 
[V:4] z12 | 
[V:1] z12 | 
[V:2] A6B2c4 | 
[V:3] z12 | 
[V:4] D,8E,4 | 
[V:1] z12 | 
[V:2] d6c2d4 | 
[V:3] z12 | 
[V:4] D,4F,8 | 
[V:1] z12 | 
[V:2] e4f6d2 | 
[V:3] z12 | 
[V:4] G,4A,4D,4 | 
[V:1] z12 | 
[V:2] d6^c2^c2=B2 | 
[V:3] z12 | 
[V:4] F,4E,8 | 
[V:1] z12 | 
[V:2] d12 | 
[V:3] z12 | 
[V:4] D,8G,4 | 
[V:1] z12 | 
[V:2] z4z4g4 | 
[V:3] z12 | 
[V:4] F,4G,8 | 
[V:1] z12 | 
[V:2] f4g4a3g | 
[V:3] z12 | 
[V:4] A,4B,4A,2D2- | 
[V:1] z12 | 
[V:2] f2e2d2g4^f2 | 
[V:3] z12 | 
[V:4] D2C2D2B,2A,4 | 
[V:1] z12 | 
[V:2] g12 | 
[V:3] z12 | 
[V:4] G,8z4 | 
[V:1] z12 | 
[V:2] z12 | 
[V:3] z12 | 
[V:4] G,3F,E,2D,4G,2 | 
[V:1] z12 | 
[V:2] z12 | 
[V:3] z12 | 
[V:4] F,2A,2B,2G,4^F,2 | 
[V:1] z12 | 
[V:2] g3fe2d4g2 | 
[V:3] z12 | 
[V:4] G,8G,4 | 
[V:1] z12 | 
[V:2] f2a2b2g4f2 | 
[V:3] z12 | 
[V:4] D4B,2C2A,4 | 
[V:1] G3FE2D4G2 | 
[V:2] g2d2z2G2B4 | 
[V:3] z12 | 
[V:4] G,4A,2B,2G,4 | 
[V:1] F2A2B2G4^F2 | 
[V:2] A4d4c4 | 
[V:3] z12 | 
[V:4] D,2F,2G,2B,2A,4 | 
[V:1] G8F4 | 
[V:2] d4z4d4 | 
[V:3] z12 | 
[V:4] G,8D,4 | 
[V:1] G4A6G2 | 
[V:2] c2B2A4f4 | 
[V:3] z12 | 
[V:4] E,4F,8 | 
[V:1] B4A2G2F2E2- | 
[V:2] e2d4B2c4 | 
[V:3] z12 | 
[V:4] G,4F,2G,2A,4 | 
[V:1] EDD4^C2D4 | 
[V:2] A4G4A2B2 | 
[V:3] z12 | 
[V:4] D,2F,2E,4D,2G,2 | 
[V:1] z2D2G2F2G4 | 
[V:2] A2GB2dcBd2ce- | 
[V:3] z12 | 
[V:4] F,2G,4A,2B,2C2- | 
[V:1] A2=B2c4d2c2 | 
[V:2] egfeg2a2d2z2 | 
[V:3] z12 | 
[V:4] C2D2C2A,2B,2A,2- | 
[V:1] A2B2A2z2DEFE/F/ | 
[V:2] c2B2c2d2A4 | 
[V:3] z12 | 
[V:4] A,F,G,2A,2D,6 | 
[V:1] G2A2B2G4^F2 | 
[V:2] G2d4d2c3B | 
[V:3] z12 | 
[V:4] E,G,F,E,/F,/G,2B,2A,4 | 
[V:1] G12 ||  
[V:2] d12 ||  
[V:3] z12 ||  
[V:4] G,12 ||  
[V:1]  [K:F] [K:clef=treble][M:4/2]=B8- | 
[V:2]  [K:F] [K:clef=treble-8][M:4/2]g8- | 
[V:3]  [K:F] [K:clef=treble-8][M:4/2]G8- | 
[V:4]  [K:F] [K:clef=bass][M:4/2]D8- | 
[V:1] B8 | 
[V:2] g8 | 
[V:3] G8- | 
[V:4] D8 | 
[V:1] G8 | 
[V:2] d8 | 
[V:3] G8- | 
[V:4] B,6C2 | 
[V:1] =B6c2 | 
[V:2] g4g4- | 
[V:3] G8 | 
[V:4] D8- | 
[V:1] d4d4- | 
[V:2] g4f2e2 | 
[V:3] G8- | 
[V:4] D8 | 
[V:1] d2c2=B4 | 
[V:2] d4e4- | 
[V:3] G8 | 
[V:4] z4G,4 | 
[V:1] A8- | 
[V:2] e4f4- | 
[V:3] c8- | 
[V:4] A,4F,4- | 
[V:1] A4=B4 | 
[V:2] f8 | 
[V:3] c8- | 
[V:4] F,4G,4 | 
[V:1] c8- | 
[V:2] e8 | 
[V:3] c8- | 
[V:4] A,8 | 
[V:1] c4=B4 | 
[V:2] f8- | 
[V:3] c8 | 
[V:4] F,8- | 
[V:1] A8 | 
[V:2] f8 | 
[V:3] c8- | 
[V:4] F,8 | 
[V:1] G8- | 
[V:2] e4c4 | 
[V:3] c8 | 
[V:4] C,8 | 
[V:1] G8 | 
[V:2] d8 | 
[V:3] B8- | 
[V:4] G,8 | 
[V:1] z4G4 | 
[V:2] G8 | 
[V:3] B8- | 
[V:4] _E,8- | 
[V:1] B4A4 | 
[V:2] _e8 | 
[V:3] B8- | 
[V:4] E,8 | 
[V:1] G8 | 
[V:2] d8- | 
[V:3] B8 | 
[V:4] G,8 | 
[V:1] ^F6G2 | 
[V:2] d8 | 
[V:3] A8- | 
[V:4] D,8- | 
[V:1] A4d4 | 
[V:2] ^f6g2 | 
[V:3] A8- | 
[V:4] D,8 | 
[V:1] c4A4- | 
[V:2] a4e4 | 
[V:3] A8- | 
[V:4] z8 | 
[V:1] A2=B2A2G2 | 
[V:2] ^f6e2 | 
[V:3] A8 | 
[V:4] D,8 | 
[V:1] =B8 | 
[V:2] g8- | 
[V:3] G8- | 
[V:4] D8- | 
[V:1] G4d4- | 
[V:2] g8 | 
[V:3] G8 | 
[V:4] D8 | 
[V:1] d4c4 | 
[V:2] d4e4 | 
[V:3] z8 | 
[V:4] B,4C4 | 
[V:1] A8 | 
[V:2] (3:2:4^f4g2^f4e2 | 
[V:3] z8 | 
[V:4] D8 | 
[V:1] =B8 | 
[V:2] g8 | 
[V:3] d8- | 
[V:4] G,8- | 
[V:1] G4A4 | 
[V:2] z8 | 
[V:3] d8 | 
[V:4] G,4F,4 | 
[V:1] B4G4- | 
[V:2] G8 | 
[V:3] B4c4 | 
[V:4] G,4E,4 | 
[V:1] G4^F4 | 
[V:2] A8 | 
[V:3] d8 | 
[V:4] D,8 | 
[V:1] G8- | 
[V:2] B6c2 | 
[V:3] G8- | 
[V:4] z8 | 
[V:1] G8 | 
[V:2] d8 | 
[V:3] G8 | 
[V:4] z8 | 
[V:1] z4B4 | 
[V:2] g8 | 
[V:3] d6e2 | 
[V:4] G,8 | 
[V:1] A4B4- | 
[V:2] c4d4 | 
[V:3] f4g4 | 
[V:4] A,4G,4- | 
[V:1] B4c4 | 
[V:2] z8 | 
[V:3] e8 | 
[V:4] G,4C4 | 
[V:1] d4B4 | 
[V:2] z8 | 
[V:3] d4g4- | 
[V:4] B,4G,4 | 
[V:1] A8 | 
[V:2] z8 | 
[V:3] g4^f4 | 
[V:4] D8 | 
[V:1] G8 | 
[V:2] d8 | 
[V:3] g8 | 
[V:4] G,8- | 
[V:1] B8 | 
[V:2] B6c2 | 
[V:3] d4e4 | 
[V:4] G,8 | 
[V:1] A8 | 
[V:2] d4A4 | 
[V:3] f4d4- | 
[V:4] D,4F,4 | 
[V:1] z8 | 
[V:2] G2G4F2 | 
[V:3] d4^c4 | 
[V:4] E,8 | 
[V:1] A4d4- | 
[V:2] A8 | 
[V:3] d8 | 
[V:4] D,8 | 
[V:1] d2c2B4 | 
[V:2] B4G4 | 
[V:3] G4d4- | 
[V:4] G,8 | 
[V:1] A8 | 
[V:2] A4f4 | 
[V:3] d4c4- | 
[V:4] F,8 | 
[V:1] G4G4- | 
[V:2] e4d4- | 
[V:3] c4B4 | 
[V:4] G,8 | 
[V:1] G4^F4 | 
[V:2] d4d4 | 
[V:3] A8 | 
[V:4] D,8 | 
[V:1] G8 ||  
[V:2] d8 ||  
[V:3] G8 ||  
[V:4] G,8 ||  
[V:1]  [K:F] [K:clef=treble][M:4/2]G8- | 
[V:2]  [K:F] [K:clef=treble-8][M:4/2]G8- | 
[V:3]  [K:F] [K:clef=treble-8][M:4/2]z8 | 
[V:4]  [K:F] [K:clef=bass][M:4/2]z8 | 
[V:1] G8 | 
[V:2] G8- | 
[V:3] z8 | 
[V:4] z8 | 
[V:1] =B6c2 | 
[V:2] G8- | 
[V:3] z8 | 
[V:4] z8 | 
[V:1] d4e4- | 
[V:2] G8 | 
[V:3] z8 | 
[V:4] z8 | 
[V:1] e2d2c4 | 
[V:2] A8 | 
[V:3] z8 | 
[V:4] z8 | 
[V:1] =B4d4- | 
[V:2] G8 | 
[V:3] z8 | 
[V:4] z8 | 
[V:1] d4c4 | 
[V:2] B4c4 | 
[V:3] z8 | 
[V:4] z8 | 
[V:1] =B4A4- | 
[V:2] d6e2 | 
[V:3] z8 | 
[V:4] z8 | 
[V:1] A4G4- | 
[V:2] f4e4 | 
[V:3] z8 | 
[V:4] z8 | 
[V:1] G4d4- | 
[V:2] g8 | 
[V:3] z8 | 
[V:4] z8 | 
[V:1] d2c2c4- | 
[V:2] f4e4 | 
[V:3] z8 | 
[V:4] z8 | 
[V:1] c4=B4 | 
[V:2] d8 | 
[V:3] z8 | 
[V:4] z8 | 
[V:1] c8 | 
[V:2] c8- | 
[V:3] z8 | 
[V:4] z8 | 
[V:1] z4c4 | 
[V:2] c8 | 
[V:3] z8 | 
[V:4] z8 | 
[V:1] =B4A4- | 
[V:2] d8 | 
[V:3] z8 | 
[V:4] z8 | 
[V:1] A2G2F4 | 
[V:2] A6B2 | 
[V:3] z8 | 
[V:4] z8 | 
[V:1] E4D4- | 
[V:2] c4d4 | 
[V:3] z8 | 
[V:4] z8 | 
[V:1] D4A4 | 
[V:2] B4c4 | 
[V:3] z8 | 
[V:4] z8 | 
[V:1] =B2G2G4- | 
[V:2] G4B4 | 
[V:3] z8 | 
[V:4] z8 | 
[V:1] G2^F2F2E2 | 
[V:2] A8 | 
[V:3] z8 | 
[V:4] z8 | 
[V:1] G6F2 | 
[V:2] G8 | 
[V:3] z8 | 
[V:4] z8 | 
[V:1] E2D2D4 | 
[V:2] z8 | 
[V:3] z8 | 
[V:4] z8 | 
[V:1] z4d4 | 
[V:2] d4B4 | 
[V:3] z8 | 
[V:4] z8 | 
[V:1] =B4G4 | 
[V:2] G4c4- | 
[V:3] z8 | 
[V:4] z8 | 
[V:1] c6d2 | 
[V:2] c2d2e4- | 
[V:3] z8 | 
[V:4] z8 | 
[V:1] e6d2 | 
[V:2] e2f2g4 | 
[V:3] z8 | 
[V:4] z8 | 
[V:1] f4e4 | 
[V:2] a6g2 | 
[V:3] z8 | 
[V:4] z8 | 
[V:1] c4d4- | 
[V:2] a4f4 | 
[V:3] z8 | 
[V:4] z8 | 
[V:1] d2^c2c2=B2 | 
[V:2] e8 | 
[V:3] z8 | 
[V:4] z8 | 
[V:1] d8- | 
[V:2] d8- | 
[V:3] z8 | 
[V:4] z8 | 
[V:1] d8 | 
[V:2] d8- | 
[V:3] z8 | 
[V:4] z8 | 
[V:1] z8 | 
[V:2] d8 | 
[V:3] z8 | 
[V:4] z8 | 
[V:1] [M:3/1]d8=B4 | 
[V:2] [M:2/1]g12 | 
[V:3] [M:3/1]z12 | 
[V:4] [M:3/1]z12 | 
[V:1] c4A8 | 
[V:2] f12 | 
[V:3] z12 | 
[V:4] z12 | 
[V:1] =B4G8 | 
[V:2] [M:3/1]g8e4 | 
[V:3] z12 | 
[V:4] z12 | 
[V:1] A6G2F4 | 
[V:2] f4d8 | 
[V:3] z12 | 
[V:4] z12 | 
[V:1] G4E4z4 | 
[V:2] e4c8 | 
[V:3] z12 | 
[V:4] z12 | 
[V:1] D4F4G4 | 
[V:2] d6c2B4 | 
[V:3] z12 | 
[V:4] z12 | 
[V:1] A4G4c4 | 
[V:2] A4c6B2 | 
[V:3] z12 | 
[V:4] z12 | 
[V:1] =B4d6G2 | 
[V:2] G6F2G4 | 
[V:3] z12 | 
[V:4] z12 | 
[V:1] G4A4=B4 | 
[V:2] E4F4G4 | 
[V:3] z12 | 
[V:4] z12 | 
[V:1] G6^F2F2E2 | 
[V:2] B4A8 | 
[V:3] z12 | 
[V:4] z12 | 
[V:1] G12 | 
[V:2] G12- | 
[V:3] z12 | 
[V:4] z12 | 
[V:1] z12 | 
[V:2] G12 | 
[V:3] z12 | 
[V:4] z12 | 
[V:1] D4E4D4 | 
[V:2] z12 | 
[V:3] z12 | 
[V:4] z12 | 
[V:1] G4F4G4 | 
[V:2] G4A4G4 | 
[V:3] z12 | 
[V:4] z12 | 
[V:1] A4G4A4 | 
[V:2] c4B4c4 | 
[V:3] z12 | 
[V:4] z12 | 
[V:1] =B4c4A4 | 
[V:2] d4c4d4 | 
[V:3] z12 | 
[V:4] z12 | 
[V:1] G2z2d4=B4 | 
[V:2] e4f4d4 | 
[V:3] z12 | 
[V:4] z12 | 
[V:1] c4=B6G2 | 
[V:2] c2z2g4e4 | 
[V:3] z12 | 
[V:4] z12 | 
[V:1] A4G4E4 | 
[V:2] f4e6c2 | 
[V:3] z12 | 
[V:4] z12 | 
[V:1] z4E6F2 | 
[V:2] d4c4A4 | 
[V:3] z12 | 
[V:4] z12 | 
[V:1] G4A4E4 | 
[V:2] z4A6B2 | 
[V:3] z12 | 
[V:4] z12 | 
[V:1] z4D4E4 | 
[V:2] c4d4A4- | 
[V:3] z12 | 
[V:4] z12 | 
[V:1] F4G4A4 | 
[V:2] A4G4d4- | 
[V:3] z12 | 
[V:4] z12 | 
[V:1] =B4c2B2A2G2 | 
[V:2] d4c8 | 
[V:3] z12 | 
[V:4] z12 | 
[V:1] G8^F4 | 
[V:2] B4A8 | 
[V:3] z12 | 
[V:4] z12 | 
[V:1] G12 | 
[V:2] G12 | 
[V:3] z12 | 
[V:4] z12 | 
[V:1] [M:4/2]z8 | 
[V:2] [M:4/2]z8 | 
[V:3] [M:4/2]z8 | 
[V:4] [M:4/2]z8 | 
[V:1] G6F2 | 
[V:2] B6A2 | 
[V:3] z8 | 
[V:4] z8 | 
[V:1] G4A4- | 
[V:2] B4c4 | 
[V:3] z8 | 
[V:4] z8 | 
[V:1] A2B4A2 | 
[V:2] d6c2 | 
[V:3] z8 | 
[V:4] z8 | 
[V:1] B4c4- | 
[V:2] d4e4 | 
[V:3] z8 | 
[V:4] z8 | 
[V:1] c2d4c2 | 
[V:2] f4g4- | 
[V:3] z8 | 
[V:4] z8 | 
[V:1] B4A4 | 
[V:2] g2d4c2 | 
[V:3] z8 | 
[V:4] z8 | 
[V:1] z2G2A2c2 | 
[V:2] B4A4 | 
[V:3] z8 | 
[V:4] z8 | 
[V:1] B2G2F2A2 | 
[V:2] z2G2A2c2 | 
[V:3] z8 | 
[V:4] z8 | 
[V:1] G2d4c2 | 
[V:2] B2AGF2A2 | 
[V:3] z8 | 
[V:4] z8 | 
[V:1] B4A4 | 
[V:2] G2d4c2 | 
[V:3] z8 | 
[V:4] z8 | 
[V:1] z2G2A2F2 | 
[V:2] B4A4 | 
[V:3] z8 | 
[V:4] z8 | 
[V:1] G2B2c2A2- | 
[V:2] z2G2A2F2 | 
[V:3] z8 | 
[V:4] z8 | 
[V:1] AGG4^F2 | 
[V:2] G2B2A4 | 
[V:3] z8 | 
[V:4] z8 | 
[V:1] G8 ||  
[V:2] G8 ||  
[V:3] z8 ||  
[V:4] z8 ||  
[V:1]  [K:F] [K:clef=treble][M:3/1]d8=B4 | 
[V:2]  [K:F] [K:clef=treble-8][M:3/1]g8g4 | 
[V:3]  [K:F] [K:clef=treble-8][M:3/1]G8G4 | 
[V:4]  [K:F] [K:clef=bass][M:3/1]z4z4G,4 | 
[V:1] c4A6G2 | 
[V:2] e4f8 | 
[V:3] c8c4 | 
[V:4] A,4F,8 | 
[V:1] G4A2c4d2 | 
[V:2] d4e4f4 | 
[V:3] B4A8 | 
[V:4] G,4C6B,2 | 
[V:1] =B4G4d4 | 
[V:2] g4d8 | 
[V:3] G4z4z4 | 
[V:4] D4B,4G,4- | 
[V:1] z2G2A2F2G4 | 
[V:2] B4A4c4 | 
[V:3] d4d4G4 | 
[V:4] G,4F,2D,2E,4 | 
[V:1] F2A4F2A4 | 
[V:2] d4z4f4 | 
[V:3] z4d4d4 | 
[V:4] D,8D,4 | 
[V:1] G2=B2A2c3BA2 | 
[V:2] g4e4f4 | 
[V:3] d4c8 | 
[V:4] G,4A,4F,4 | 
[V:1] G4A4^F2E2 | 
[V:2] d8d4 | 
[V:3] B4A4A4 | 
[V:4] G,4D,8 | 
[V:1] G12 | 
[V:2] B8G4 | 
[V:3] G12 | 
[V:4] D4D4D4 | 
[V:1] z12 | 
[V:2] z4g8- | 
[V:3] d4d4d4 | 
[V:4] G,12 | 
[V:1] d6c2=B4 | 
[V:2] g8g4 | 
[V:3] G12 | 
[V:4] z12 | 
[V:1] A4G4c4 | 
[V:2] f4d2g2a2f2 | 
[V:3] z12 | 
[V:4] D4B,2C2A,4 | 
[V:1] =B4d6c2 | 
[V:2] g4d8 | 
[V:3] g8g4 | 
[V:4] G,12 | 
[V:1] A4=B6A2 | 
[V:2] z12 | 
[V:3] f8f4 | 
[V:4] D8D4 | 
[V:1] c6d2e4 | 
[V:2] e8e4 | 
[V:3] g8g4 | 
[V:4] C8C4 | 
[V:1] d12 | 
[V:2] f4g6fg | 
[V:3] d12 | 
[V:4] B,6G,2B,4 | 
[V:1] z2c4=B2c2A2 | 
[V:2] a8a4 | 
[V:3] z12 | 
[V:4] A,4A,8 | 
[V:1] =B4c2d4B2 | 
[V:2] d12 | 
[V:3] g8g4 | 
[V:4] G,12 | 
[V:1] d3cA3=BA2GF | 
[V:2] z4z4d4 | 
[V:3] f8f4 | 
[V:4] D,8D,4 | 
[V:1] E4z4G4 | 
[V:2] =B4c8 | 
[V:3] g8e4 | 
[V:4] E,4C,8 | 
[V:1] F2G2A4B2G2 | 
[V:2] A6d4B2 | 
[V:3] d12 | 
[V:4] D,8G,4 | 
[V:1] A4=B2^c4B2 | 
[V:2] c2d2e8 | 
[V:3] z4z4g4 | 
[V:4] F,4E,8 | 
[V:1] d2z2e2c2d2e2 | 
[V:2] f4e4d4 | 
[V:3] a8g4 | 
[V:4] D,4A,4B,2C2 | 
[V:1] f2d4^c2c2=B2 | 
[V:2] z4a8- | 
[V:3] f4e8 | 
[V:4] D4A,8 | 
[V:1] d8z4 | 
[V:2] a8f4 | 
[V:3] d12 | 
[V:4] D,12 | 
[V:1] =B6c2d4 | 
[V:2] d4g6f2 | 
[V:3] z12 | 
[V:4] G,12 | 
[V:1] d4=B4G4 | 
[V:2] d8d4 | 
[V:3] G8G4 | 
[V:4] z4z4B,4 | 
[V:1] A6G2E2F2 | 
[V:2] e2f4e2c4 | 
[V:3] c8c4 | 
[V:4] A,2F,4G,2A,4 | 
[V:1] G4A2F3GA2 | 
[V:2] d8z4 | 
[V:3] B4A8 | 
[V:4] G,4D,8 | 
[V:1] B2G2z2d4c2 | 
[V:2] d2e2d2g4e2 | 
[V:3] G4z4z4 | 
[V:4] z4G,4E,4 | 
[V:1] d2B4A2B2G2 | 
[V:2] f2g3fd4c2 | 
[V:3] d4d4G4 | 
[V:4] D,2G,4F,2_E,4 | 
[V:1] F2A4B4A2 | 
[V:2] d6B3cd2 | 
[V:3] z4d4d4 | 
[V:4] D,4z2G,4F,2 | 
[V:1] z2G2A2F3GA2 | 
[V:2] G4F4A4 | 
[V:3] d6c6 | 
[V:4] B,4A,4F,4 | 
[V:1] D2G2A2^F4E2 | 
[V:2] G4d8 | 
[V:3] B4A8 | 
[V:4] G,4D,8 | 
[V:1] G12 |]  
[V:2] d12 |]  
[V:3] G12 |]  
[V:4] G,12 |]  



